svgs/queen_dark.svg

<?xml version="1.0" encoding="UTF-8" standalone="no"?>
<svg
   xmlns:dc="http://purl.org/dc/elements/1.1/"
   xmlns:cc="http://creativecommons.org/ns#"
   xmlns:rdf="http://www.w3.org/1999/02/22-rdf-syntax-ns#"
   xmlns:svg="http://www.w3.org/2000/svg"
   xmlns="http://www.w3.org/2000/svg"
   xmlns:sodipodi="http://sodipodi.sourceforge.net/DTD/sodipodi-0.dtd"
   xmlns:inkscape="http://www.inkscape.org/namespaces/inkscape"
   version="1.1"
   width="80"
   height="80"
   id="svg30"
   sodipodi:docname="queen_dark.svg"
   inkscape:version="0.92.4 (5da689c313, 2019-01-14)">
  <metadata
     id="metadata36">
    <rdf:RDF>
      <cc:Work
         rdf:about="">
        <dc:format>image/svg+xml</dc:format>
        <dc:type
           rdf:resource="http://purl.org/dc/dcmitype/StillImage" />
        <dc:title></dc:title>
      </cc:Work>
    </rdf:RDF>
  </metadata>
  <defs
     id="defs34" />
  <sodipodi:namedview
     pagecolor="#ffffff"
     bordercolor="#666666"
     borderopacity="1"
     objecttolerance="10"
     gridtolerance="10"
     guidetolerance="10"
     inkscape:pageopacity="0"
     inkscape:pageshadow="2"
     inkscape:window-width="1920"
     inkscape:window-height="1017"
     id="namedview32"
     showgrid="false"
     inkscape:pagecheckerboard="true"
     inkscape:zoom="5.2444444"
     inkscape:cx="22.5"
     inkscape:cy="22.5"
     inkscape:window-x="-8"
     inkscape:window-y="-8"
     inkscape:window-maximized="1"
     inkscape:current-layer="svg30" />
  <g
     style="opacity:1;fill:#000000;fill-opacity:1;fill-rule:evenodd;stroke:#000000;stroke-width:1.5;stroke-linecap:round;stroke-linejoin:round;stroke-miterlimit:4;stroke-dasharray:none;stroke-opacity:1"
     id="g28"
     transform="matrix(1.8320493,0,0,1.8320493,-1.2211093,-2.5431129)">
    <g
       style="fill:#000000;stroke:none"
       id="g12">
      <circle
         cx="6"
         cy="12"
         r="2.75"
         id="circle2" />
      <circle
         cx="14"
         cy="9"
         r="2.75"
         id="circle4" />
      <circle
         cx="22.5"
         cy="8"
         r="2.75"
         id="circle6" />
      <circle
         cx="31"
         cy="9"
         r="2.75"
         id="circle8" />
      <circle
         cx="39"
         cy="12"
         r="2.75"
         id="circle10" />
    </g>
    <path
       d="m 9,26 c 8.5,-1.5 21,-1.5 27,0 L 38.5,13.5 31,25 30.7,10.9 25.5,24.5 22.5,10 19.5,24.5 14.3,10.9 14,25 6.5,13.5 Z"
       style="stroke:#000000;stroke-linecap:butt"
       id="path14"
       inkscape:connector-curvature="0" />
    <path
       d="m 9,26 c 0,2 1.5,2 2.5,4 1,1.5 1,1 0.5,3.5 -1.5,1 -1,2.5 -1,2.5 -1.5,1.5 0,2.5 0,2.5 6.5,1 16.5,1 23,0 0,0 1.5,-1 0,-2.5 0,0 0.5,-1.5 -1,-2.5 -0.5,-2.5 -0.5,-2 0.5,-3.5 1,-2 2.5,-2 2.5,-4 -8.5,-1.5 -18.5,-1.5 -27,0 z"
       style="stroke-linecap:butt"
       id="path16"
       inkscape:connector-curvature="0" />
    <path
       d="m 11,38.5 a 35,35 1 0 0 23,0"
       style="fill:none;stroke:#000000;stroke-linecap:butt"
       id="path18"
       inkscape:connector-curvature="0" />
    <path
       d="m 11,29 a 35,35 1 0 1 23,0"
       style="fill:none;stroke:#ffffff"
       id="path20"
       inkscape:connector-curvature="0" />
    <path
       d="m 12.5,31.5 h 20"
       style="fill:none;stroke:#ffffff"
       id="path22"
       inkscape:connector-curvature="0" />
    <path
       d="m 11.5,34.5 a 35,35 1 0 0 22,0"
       style="fill:none;stroke:#ffffff"
       id="path24"
       inkscape:connector-curvature="0" />
    <path
       d="m 10.5,37.5 a 35,35 1 0 0 24,0"
       style="fill:none;stroke:#ffffff"
       id="path26"
       inkscape:connector-curvature="0" />
  </g>
</svg>

<?xml version="1.0" encoding="UTF-8" standalone="no"?>
<!DOCTYPE svg PUBLIC "-//W3C//DTD SVG 1.1//EN" "http://www.w3.org/Graphics/SVG/1.1/DTD/svg11.dtd">
<svg xmlns="http://www.w3.org/2000/svg" version="1.1" width="45" height="45">
  <g style="opacity:1; fill:#000000; fill-opacity:1; fill-rule:evenodd; stroke:#000000; stroke-width:1.5; stroke-linecap:round;stroke-linejoin:round;stroke-miterlimit:4; stroke-dasharray:none; stroke-opacity:1;">
    <g style="fill:#000000; stroke:none;">
      <circle cx="6" cy="12" r="2.75"/>
      <circle cx="14" cy="9" r="2.75"/>
      <circle cx="22.5" cy="8" r="2.75"/>
      <circle cx="31" cy="9" r="2.75"/>
      <circle cx="39" cy="12" r="2.75"/>
    </g>
    <path d="M 9,26 C 17.5,24.5 30,24.5 36,26 L 38.5,13.5 L 31,25 L 30.7,10.9 L 25.5,24.5 L 22.5,10 L 19.5,24.5 L 14.3,10.9 L 14,25 L 6.5,13.5 L 9,26 z" style="stroke-linecap:butt; stroke:#000000;"/>
    <path d="M 9,26 C 9,28 10.5,28 11.5,30 C 12.5,31.5 12.5,31 12,33.5 C 10.5,34.5 11,36 11,36 C 9.5,37.5 11,38.5 11,38.5 C 17.5,39.5 27.5,39.5 34,38.5 C 34,38.5 35.5,37.5 34,36 C 34,36 34.5,34.5 33,33.5 C 32.5,31 32.5,31.5 33.5,30 C 34.5,28 36,28 36,26 C 27.5,24.5 17.5,24.5 9,26 z" style="stroke-linecap:butt;"/>
    <path d="M 11,38.5 A 35,35 1 0 0 34,38.5" style="fill:none; stroke:#000000; stroke-linecap:butt;"/>
    <path d="M 11,29 A 35,35 1 0 1 34,29" style="fill:none; stroke:#ffffff;"/>
    <path d="M 12.5,31.5 L 32.5,31.5" style="fill:none; stroke:#ffffff;"/>
    <path d="M 11.5,34.5 A 35,35 1 0 0 33.5,34.5" style="fill:none; stroke:#ffffff;"/>
    <path d="M 10.5,37.5 A 35,35 1 0 0 34.5,37.5" style="fill:none; stroke:#ffffff;"/>
  </g>
</svg>
